symbolic/32x32/apps/distributor-logo-korora.svg

<svg xmlns="http://www.w3.org/2000/svg" width="32" height="32" version="1"><path style="opacity:.2" d="M20 3c-5.523 0-10 4.477-10 10s4.477 10 10 10 10-4.477 10-10V4.53C30 3.68 29.321 3 28.471 3z"/><path style="fill:#666" d="M20 2c-5.523 0-10 4.477-10 10s4.477 10 10 10 10-4.477 10-10V3.53C30 2.68 29.321 2 28.471 2z"/><path style="opacity:.2" d="M20 20c3.88 0 7-3.12 7-7V6h-7c-3.88 0-7 3.12-7 7s3.12 7 7 7z"/><path style="fill:#ececec" d="M20 19c3.88 0 7-3.12 7-7V5h-7c-3.88 0-7 3.12-7 7s3.12 7 7 7z"/><path style="opacity:.2" d="M12 11C6.477 11 2 15.477 2 21v8.47c0 .85.683 1.53 1.53 1.53H12c5.523 0 10-4.477 10-10s-4.477-10-10-10z"/><path style="fill:#fff;opacity:.1" d="M20 2c-5.523 0-10 4.477-10 10 0 .169.017.333.025.5C10.288 7.211 14.646 3 20 3h8.471C29.321 3 30 3.68 30 4.53v-1C30 2.68 29.321 2 28.471 2H20z"/><path style="fill:gray" d="M12 10C6.477 10 2 14.477 2 20v8.47c0 .85.683 1.53 1.53 1.53H12c5.523 0 10-4.477 10-10s-4.477-10-10-10z"/><path style="opacity:.2" d="M12 14c-3.88 0-7 3.12-7 7v7h7c3.88 0 7-3.12 7-7s-3.12-7-7-7z"/><path style="fill:#fff" d="M12 13c-3.88 0-7 3.12-7 7v7h7c3.88 0 7-3.12 7-7s-3.12-7-7-7z"/><path style="fill:#fff;opacity:.2" d="M12 10C6.477 10 2 14.477 2 20v1c0-5.523 4.477-10 10-10 5.354 0 9.713 4.211 9.975 9.5.008-.167.025-.331.025-.5 0-5.523-4.477-10-10-10z"/></svg>

<svg xmlns="http://www.w3.org/2000/svg" width="32" height="32" version="1">
 <path style="opacity:0.2" d="M 20,3 C 14.477,3 10,7.4771 10,13 10,18.523 14.477,23 20,23 25.523,23 30,18.523 30,13 V 4.5293 C 30,3.6793 29.321,3 28.471,3 Z"/>
 <path style="fill:#666666" d="M 20,2 C 14.477,2 10,6.4771 10,12 10,17.523 14.477,22 20,22 25.523,22 30,17.523 30,12 V 3.5293 C 30,2.6793 29.321,2 28.471,2 Z"/>
 <path style="opacity:0.2" d="M 20,20 C 23.88,20 27,16.88 27,13 V 6 H 20 C 16.12,6 13,9.12 13,13 13,16.88 16.12,20 20,20 Z"/>
 <path style="fill:#ececec" d="M 20,19 C 23.88,19 27,15.88 27,12 V 5 H 20 C 16.12,5 13,8.12 13,12 13,15.88 16.12,19 20,19 Z"/>
 <path style="opacity:0.2" d="M 12,11 C 6.4772,11 2,15.477 2,21 V 29.47 C 2,30.32 2.6829,31 3.5309,31 H 12 C 17.523,31 22,26.523 22,21 22,15.477 17.523,11 12,11 Z"/>
 <path style="fill:#ffffff;opacity:0.1" d="M 20 2 C 14.477 2 10 6.4771 10 12 C 10 12.169 10.017 12.333 10.025 12.5 C 10.288 7.2112 14.646 3 20 3 L 28.471 3 C 29.321 3 30 3.6793 30 4.5293 L 30 3.5293 C 30 2.6793 29.321 2 28.471 2 L 20 2 z"/>
 <path style="fill:#808080" d="M 12,10 C 6.4772,10 2,14.477 2,20 V 28.47 C 2,29.32 2.6829,30 3.5309,30 H 12 C 17.523,30 22,25.523 22,20 22,14.477 17.523,10 12,10 Z"/>
 <path style="opacity:0.2" d="M 12,14 C 8.1199,14 5,17.12 5,21 V 28 H 12 C 15.88,28 19,24.88 19,21 19,17.12 15.88,14 12,14 Z"/>
 <path style="fill:#ffffff" d="M 12,13 C 8.1199,13 5,16.12 5,20 V 27 H 12 C 15.88,27 19,23.88 19,20 19,16.12 15.88,13 12,13 Z"/>
 <path style="fill:#ffffff;opacity:0.2" d="M 12 10 C 6.4772 10 2 14.477 2 20 L 2 21 C 2 15.477 6.4772 11 12 11 C 17.354 11 21.713 15.211 21.975 20.5 C 21.983 20.333 22 20.169 22 20 C 22 14.477 17.523 10 12 10 z"/>
</svg>
